X:1
T:James Gibb editions
T:Thou whose almighty word - Barnby
%%score [ ( 1 2 ) ( 3 4 ) ]
L:1/8
Q:1/4=96
M:3/4
K:F
V:1 treble nm="Midi_74"
V:2 treble 
V:3 bass nm="Midi_74"
V:4 bass 
V:1
"^John Marriott\n(1780-1825)""^Thou whose almighty word""^Joseph Barnby\n(1838-96)""^664. 6664"!f! c2 c2 d2 | %1
 B4 c2 | A6 || A2 A2 A2 | c4 =B2 | A6 ||!mf! A2 B2 G2 | A6 ||!<(! A2 A2!<)! d2 |!>(! c4!>)! B2 | %10
 A6 ||[M:3/4]!<(! A2 A2!<)! d2 |!>(! c4!>)! B2 | A6 ||!f! B2 A2 G2 | c4 A2 | F6 || !>!d6 | !>!c6 | %19
 !>!G6 | !>!A6 || B6 | A6 |] %23
V:2
 F2 F2 F2 | D4 E2 | C6 || F2 G2 F2 | E4 D2 | C6 || D2 D2 D2 | ^C6 || D2 E2 ^F2 | A4 G2 | E6 || %11
[M:3/4] D2 E2 F2 | G4 E2 | F6 || F2 F2 F2 | F4 _E2 | D6 || !>!F6 | !>!F6 | !>!E6 | !>!F6 || F6 | %22
 F6 |] %23
V:3
 A,2 A,2 A,2 | G,4 G,2 | F,6 || C2 ^C2 D2 | A,4 ^G,2 | A,6 || F,2"^1" G,2 G,2 | E,6 || %8
 ^F,2 G,2 A,2 | D4 G,2 | A,6 || %11
[M:3/4] !courtesy!=F,2"^1 Thou, whose almighty word\nchaos and darkness heard,\nand took their flight;\nhear us, we humbly pray,\nand where the gospel-day\nsheds not its glorious ray,\nlet there be light.\n\n2 Thou, who didst come to bring\non thy redeeming wing\nhealing and sight,\nhealth to the sick in mind,\nsight to the inly blind,\nO now to all mankind\nlet there be light." G,2 A,2 | %12
 G,4 C2 | C6 || B,2 C2 D2 | %15
 _E4"^3 Spirit of truth and love,\nlife-giving, holy Dove,\nspeed forth thy flight;\nmove on the water's face,\nbearing the lamp of grace,\nand in earth's darkest place\nlet there be light.\n\n4 Holy and blessèd Three,\nglorious Trinity,\nWisdom, Love, Might;\nboundless as ocean's tide\nrolling in fullest pride,\nthrough the earth far and wide\nlet there be light.\n" C2 | %16
 B,6 || !>!B,6 | !>!G,6 | !>!C6 | !>!C6 || D6 | C6 |] %23
V:4
 F,2 F,2 D,2 | G,4 C,2 | F,6 || F,2 E,2 D,2 | E,4 E,2 | A,,6 || D,2 G,,2 B,,2 | A,,6 || %8
 D,2 D,2 D,2 | ^F,4 G,2 | ^C,6 ||[M:3/4] D,2 D,2 D,2 | E,4 C,2 | F,6 || D,2 C,2 B,,2 | A,,4 A,,2 | %16
 B,,6 || !>!G,,6 | !>!C,6 | !>!C,6 | !>!F,,6 || B,,6 | F,6 |] %23

